svgs/light/square-c.svg

<svg xmlns="http://www.w3.org/2000/svg" viewBox="0 0 448 512"><!-- Font Awesome Pro 6.0.0-alpha2 by @fontawesome - https://fontawesome.com License - https://fontawesome.com/license (Commercial License) --><path d="M384 32H64C28.654 32 0 60.654 0 96V416C0 451.346 28.654 480 64 480H384C419.346 480 448 451.346 448 416V96C448 60.654 419.346 32 384 32ZM416 416C416 433.645 401.645 448 384 448H64C46.355 448 32 433.645 32 416V96C32 78.355 46.355 64 64 64H384C401.645 64 416 78.355 416 96V416ZM292.703 188.141C298.984 194.391 309.125 194.344 315.344 188.094C321.578 181.828 321.547 171.688 315.297 165.453C265.203 115.609 183.734 115.594 133.641 165.469C109.375 189.641 96 221.797 96 256S109.375 322.359 133.641 346.547C158.687 371.469 191.578 383.937 224.469 383.937S290.25 371.469 315.297 346.547C321.547 340.312 321.578 330.172 315.344 323.906C309.094 317.672 298.953 317.594 292.703 323.859C255.078 361.328 193.859 361.313 156.234 323.875C138.016 305.734 128 281.625 128 256S138.016 206.266 156.234 188.141C193.859 150.672 255.078 150.672 292.703 188.141Z"/></svg>

<svg xmlns="http://www.w3.org/2000/svg" viewBox="0 0 448 512"><!--! Font Awesome Pro 6.3.0 by @fontawesome - https://fontawesome.com License - https://fontawesome.com/license (Commercial License) Copyright 2023 Fonticons, Inc. --><path d="M384 32H64C28.65 32 0 60.65 0 96v320c0 35.35 28.65 64 64 64h320c35.35 0 64-28.65 64-64V96C448 60.65 419.3 32 384 32zM416 416c0 17.64-14.36 32-32 32H64c-17.64 0-32-14.36-32-32V96c0-17.64 14.36-32 32-32h320c17.64 0 32 14.36 32 32V416zM292.7 188.1c6.281 6.25 16.42 6.203 22.64-.0469c6.234-6.266 6.203-16.41-.0469-22.64C265.2 115.6 183.7 115.6 133.6 165.5C109.4 189.6 96 221.8 96 255.1s13.37 66.36 37.64 90.55c25.05 24.92 57.94 37.39 90.83 37.39s65.78-12.47 90.83-37.39c6.25-6.234 6.281-16.38 .0469-22.64c-6.25-6.234-16.39-6.312-22.64-.0469c-37.63 37.47-98.84 37.45-136.5 .0156C138 305.7 128 281.6 128 256s10.02-49.73 28.23-67.86C193.9 150.7 255.1 150.7 292.7 188.1z"/></svg>
